img/footer-socials-twitter.svg

<?xml version="1.0" encoding="UTF-8"?>
<svg width="30px" height="30px" viewBox="0 0 30 30" version="1.1" xmlns="http://www.w3.org/2000/svg" xmlns:xlink="http://www.w3.org/1999/xlink">
    <!-- Generator: Sketch 46.2 (44496) - http://www.bohemiancoding.com/sketch -->
    <title>footer-socials-twitter</title>
    <desc>Created with Sketch.</desc>
    <defs></defs>
    <g id="Symbols" stroke="none" stroke-width="1" fill="none" fill-rule="evenodd">
        <g id="footer/3-quarters-and-half" transform="translate(-225.000000, -120.000000)" fill="#E0E6F0">
            <g id="socials">
                <g transform="translate(225.000000, 120.000000)">
                    <path d="M10.8623944,25 C7.96589122,25 5.2698343,24.1641837 3,22.7316386 C3.40125828,22.7782679 3.80955777,22.8021226 4.22352683,22.8021226 C6.62650426,22.8021226 8.83808845,21.994932 10.5934562,20.6407925 C8.34904349,20.6000144 6.45486302,19.1402839 5.80222393,17.1343247 C6.11532975,17.1932865 6.43666557,17.2248828 6.76714584,17.2248828 C7.23497568,17.2248828 7.68808296,17.1632205 8.11851202,17.0478175 C5.77204726,16.5840452 4.00415158,14.5433391 4.00415158,12.0970123 C4.00415158,12.0757681 4.00415158,12.0546139 4.00451736,12.0335497 C4.69611178,12.4117149 5.48692344,12.6388301 6.32775522,12.6650253 C4.95151615,11.7596252 4.0459417,10.2141976 4.0459417,8.46253905 C4.0459417,7.53724491 4.29887706,6.66992231 4.7403709,5.92421392 C7.27009035,8.9788818 11.0493983,10.9889818 15.3121731,11.1995337 C15.2247522,10.8300102 15.1793043,10.4446435 15.1793043,10.0489247 C15.1793043,7.26061986 17.4758404,5 20.3085153,5 C21.7836973,5 23.1166831,5.61320203 24.0523428,6.5944873 C25.2206372,6.36800223 26.3183364,5.94779861 27.30932,5.36925348 C26.9263506,6.5482181 26.1131351,7.537695 25.0541168,8.16259936 C26.0916456,8.04053507 27.0801602,7.76913106 28,7.36756114 C27.3123377,8.38008264 26.4427009,9.2693696 25.4406525,9.98123127 C25.4505285,10.1977243 25.4554665,10.4154777 25.4554665,10.6344012 C25.4554665,17.306439 20.2965361,25 10.8623944,25" id="twitter"></path>
                </g>
            </g>
        </g>
    </g>
</svg>

<svg width="30" height="30" viewBox="0 0 30 30" xmlns="http://www.w3.org/2000/svg"><path d="M10.862 25A14.69 14.69 0 0 1 3 22.732c.401.046.81.07 1.224.07 2.403 0 4.614-.807 6.37-2.161-2.245-.041-4.14-1.5-4.792-3.507a5.2 5.2 0 0 0 2.317-.086c-2.347-.464-4.115-2.505-4.115-4.951v-.063a5.17 5.17 0 0 0 2.324.631 5.027 5.027 0 0 1-2.282-4.202c0-.926.253-1.793.694-2.539A14.639 14.639 0 0 0 15.312 11.2a4.993 4.993 0 0 1-.133-1.151C15.18 7.26 17.476 5 20.31 5a5.16 5.16 0 0 1 3.743 1.594A10.37 10.37 0 0 0 27.31 5.37a5.08 5.08 0 0 1-2.255 2.794A10.382 10.382 0 0 0 28 7.368a10.336 10.336 0 0 1-2.56 2.613c.01.217.015.434.015.653C25.455 17.306 20.297 25 10.862 25" fill="#E0E6F0" fill-rule="evenodd"/></svg>
